public/sheesh/icons4.svg

<svg width="42" height="42" viewBox="0 0 42 42" fill="none" xmlns="http://www.w3.org/2000/svg">
<rect width="42" height="42" rx="8" fill="#1D202F"/>
<path fill-rule="evenodd" clip-rule="evenodd" d="M27.78 17.28V18.53C30.58 18.88 31.5 20.3 31.5 23.79V25.65C31.5 29.75 30.25 31 26.15 31H16.85C12.75 31 11.5 29.75 11.5 25.65V23.79C11.5 20.3 12.42 18.88 15.22 18.53V17.28C15.22 14.58 15.87 11 21.5 11C27.13 11 27.78 14.58 27.78 17.28ZM18.48 24.72C18.48 26.38 19.83 27.74 21.5 27.74C23.17 27.74 24.52 26.39 24.52 24.72C24.52 23.06 23.16 21.7 21.5 21.7C19.84 21.7 18.48 23.05 18.48 24.72ZM16.62 18.44H16.85V18.45H26.15H26.38V17.28C26.38 14.35 25.55 12.4 21.5 12.4C17.45 12.4 16.62 14.35 16.62 17.28V18.44ZM23.1311 24.7198C23.1311 25.6201 22.4013 26.3498 21.5011 26.3498C20.6009 26.3498 19.8711 25.6201 19.8711 24.7198C19.8711 23.8196 20.6009 23.0898 21.5011 23.0898C22.4013 23.0898 23.1311 23.8196 23.1311 24.7198Z" fill="#434665"/>
</svg>

<svg fill="none" height="42" viewBox="0 0 42 42" width="42" xmlns="http://www.w3.org/2000/svg"><rect fill="#1d202f" height="42" rx="8" width="42"/><path clip-rule="evenodd" d="m27.78 17.28v1.25c2.8.35 3.72 1.77 3.72 5.26v1.86c0 4.1-1.25 5.35-5.35 5.35h-9.3c-4.1 0-5.35-1.25-5.35-5.35v-1.86c0-3.49.92-4.91 3.72-5.26v-1.25c0-2.7.65-6.28 6.28-6.28s6.28 3.58 6.28 6.28zm-9.3 7.44c0 1.66 1.35 3.02 3.02 3.02s3.02-1.35 3.02-3.02c0-1.66-1.36-3.02-3.02-3.02s-3.02 1.35-3.02 3.02zm-1.86-6.28h.23v.01h9.3.23v-1.17c0-2.93-.83-4.88-4.88-4.88s-4.88 1.95-4.88 4.88zm6.5111 6.2798c0 .9003-.7298 1.63-1.63 1.63s-1.63-.7297-1.63-1.63c0-.9002.7298-1.63 1.63-1.63s1.63.7298 1.63 1.63z" fill="#434665" fill-rule="evenodd"/></svg>
